pro/src/icons/full-mail.svg

<svg width="48" height="48" viewBox="0 0 48 48" xmlns="http://www.w3.org/2000/svg">
<path id="icon" fill-rule="evenodd" clip-rule="evenodd" d="M43.9638 11.7382L26.22 25.1969L26.2168 25.1993C24.9264 26.1843 23.0637 26.184 21.7732 25.1993L4.26825 11.7407L4.26593 11.7389C4.2013 11.6898 4.13359 11.6468 4.06354 11.6096C4.18554 11.0614 4.40218 10.5502 4.69494 10.0948C5.25452 9.4176 6.09476 9 7 9H35.4757H41C41.9066 9 42.748 9.41886 43.3076 10.0978C43.6221 10.5879 43.8485 11.1426 43.9638 11.7382ZM32.3606 24.1346L44 15.306V35.693L35.9036 27.6493C35.8763 27.6222 35.8482 27.5964 35.8192 27.5718L32.3606 24.1346ZM34.8611 30.6776L42.6983 38.4638C42.2087 38.8044 41.6196 39 41 39H7C6.3803 39 5.79106 38.8043 5.30147 38.4636L17.9657 25.8864L19.9255 27.3932L19.927 27.3943L19.928 27.3951C22.297 29.2025 25.6936 29.2021 28.0626 27.3946L28.0637 27.3938L30.041 25.894L34.7743 30.5979C34.8023 30.6258 34.8313 30.6524 34.8611 30.6776ZM4 15.1488V35.6929L15.6597 24.1134L4 15.1488Z" fill="currentColor"/>
</svg>

<svg xmlns="http://www.w3.org/2000/svg" width="48" height="48"><path id="icon" fill="currentColor" fill-rule="evenodd" d="M43.964 11.738 26.22 25.197l-.003.002c-1.29.985-3.153.985-4.444 0L4.268 11.741l-.002-.002a1.5 1.5 0 0 0-.202-.13 4.7 4.7 0 0 1 .63-1.514A3 3 0 0 1 7 9h34c.907 0 1.748.419 2.308 1.098.314.49.54 1.045.656 1.64M32.36 24.135 44 15.306v20.387l-8.096-8.044a2 2 0 0 0-.085-.077zm2.5 6.543 7.837 7.786c-.49.34-1.078.536-1.698.536H7c-.62 0-1.209-.196-1.699-.536l12.665-12.578 1.96 1.507.001.001.001.001c2.369 1.808 5.766 1.807 8.135 0v-.001l1.978-1.5 4.733 4.704q.042.041.087.08M4 15.148v20.545l11.66-11.58z" clip-rule="evenodd"/></svg>
